!! 00000] TT[WS
!!!OTL: Yuo diedao
!!!ARE: Asia, China, Shanxi Pingjie
!! Ethnic Group: Han
!! WII, 64
!!!SCT: J0492
!!!YEM: Copyright 1995, estate of Helmut Schaffrath.
**kern
*ICvox
*Ivox
*M2/4
*k[f#]
*G:
{8.b
16a
4dd
=1
8.cc
16b
4a
=2
8.b
16a
4dd
=3
8.cc
16b
4a}
=4
{8dd
8ee
8dd
8g
=5
8a
8g
8f#
8e
=6
4d
8e
8g
=7
2d}
=8
{4g
8f#
8e
=9
4d
4d
=10
8.b
16a
4dd
=11
8.cc
16b
4a}
=12
{8dd
8ee
8dd
8g
=13
8a
8g
8f#
8e
=14
4d
8e
8g
=15
2d}
==
!!!AGN: Xiaodiao. Qingge, Sichun
!!!ONB: ESAC (Essen Associative Code) Database: CHINA
!!!AMT: simple duple
!!!AIN: vox
!!!EED: Helmut Schaffrath
!!!EEV: 1.0
*-
